X: 1887
T: Tıfl-ı Nâzım Meclis-i Rindâne Gel
C: Tanburî Ali Efendi
O: Turkey
F: http://compmusic.upf.edu/node/140
N: ussak--sarki--yuruksemai_ii--tifl-i_nazim--tanburi_ali_efendi
N: makam= ussak
N: form= sarki
N: usul= yuruksemai_ii = 6/8
M: 6/8
L: 1/16
K: C _2/4B   
Q: 1/4=174
%%MIDI tuningsystem comma53
G2^3/4F2 G2A4B2  | c4 d2B3AG2  | c2B2 d2c2 B2{c}BA  | A12  | \
w:  Tıfl_ *  ı  nâ  |  zım   |  mec *  lis_ i   |  rin  | 
d2c2 d2e4f2  | 
w:  dâ *  ne  gel   | 
g2f2 e2d2 c2B2  | A4 G2G2 e2{f}ed  | d12  | \
w:  rin  |  dâ *  *  *  *  ne   |  gel    | 
G2^3/4F2 G2A4B2  | c4 d2B3AG2  | 
w:  Tıfl_ *  ı  nâ  |  zım   | 
c2B2 d2c2 B2{c}BA  | A12  | d2c2 d2e4f2  | \
w:  mec *  lis_ i   |  rin  |  dâ *  ne  gel   | 
g2f2 e2d2 c2B2  | A4 G2G2 e2{f}ed  | 
w:  rin  |  dâ *  *  *  *  ne   | 
d12  | e2d2 e2d2 c2B2  | {e}d2c2 d2c4B2  | \
w:  gel    |  Bâ *  de  nûş_  |  *  ey  | 
A4 B2c3/2d/ c2B2  | d12  | c2B2 d2A6  | 
w:  le  a çıl   |  cev  |  lâ *  ne  gel   | 
B4 c2B3AG2  | A4 B2c2 d2cB  | B^AB8z2  | \
w:  cev  |  lâ *  *  *  ne   |  gel    | 
A4 B2c3/2d/ c2B2  | 
w:  Bâ de  nûş_  | 
c4 B2c4B2  | g4 fed4cB  | B4 AGG6  | G2^3/4F2 G2A6  | \
w:  ey  |  le  a *  çıl   |  cev  |  lâ *  ne  gel   | 
^3/4F2G2 A2B2 c3B  | 
w:  cev  | 
d4 c2B2 A2G2  | A12  | A4 f2f6  | e2f2 g2e2 {f}e2d2  | \
w:  lâ *  *  *  ne   |  gel    |  Çeşm_ i  mah  |  mû  | 
d4 e2f2 e2d2  | c2B2 d2c6  | 
w:  run  sü züp   |  mes  | 
c2B2 c2d6  | _7/8e4 d2g^3/4f edc2  | \
w:  tâ *  ne  gel   |  mes  | 
a2g2 ^3/4f2fg f_7/8e{f}ed  | d12  | 
w:  ta *  *  *  *  *  *  *  ne   |  gel    | 
d4 a2a2 _7/8b2ag  | g6ga gfef  | g4 a2g2 f2e2  | f12  | \
w:  Çeşm_ i  mah  |  mu  |  run  sü züp   |  mes  | 
f2e2 f2g4a2  | 
w:  ta *  ne  gel   | 
_7/8b2a2 g2f2 e2d2  | c2B2 A2G2 e2{f}ed  | d12  | \
w:  mes  |  ta *  *  *  *  *  ne   |  gel    | 
e2d2 e2d2 c2B2  | {e}d2c2 d2c4B2  | 
w:  Bâ *  de  nûş_  |  *  ey  | 
A4 B2c3/2d/ c2B2  | d12  | c2B2 d2A6  | \
w:  le  a çıl   |  cev  |  lâ *  ne  gel   | 
B4 c2B3AG2  | A4 B2c2 d2cB  | 
w:  cev  |  lâ *  *  *  ne   | 
B^AB8z2  | A4 B2c3/2d/ c2B2  | c4 B2c4B2  | \
w:  gel    |  Bâ de  nûş_  |  ey  | 
g4 fed4cB  | B4 AGG6  | 
w:  le  a *  çıl   |  cev  | 
G2^3/4F2 G2A6  | ^3/4F2G2 A2B2 c3B  | \
w:  lâ *  ne  gel   |  cev  | 
d4 c2B2 A2G2  | A12  | G2A4c2 B2A2  | 
w:  lâ *  *  *  ne   |  gel    |  A man_ a man  gel   | 
A4 G2^3/4F3ED2  | G2G4c2 B3A  | A8-A2z2  | \
w:   |  ca nım  ca nım   |  gel   | 
c_3/4dc2 B2c2 d2e2  | c4 _3/4d2d2 {e}d2c2  | 
w:  gel  *  *  *  gel   |  sev di ğim   | 
c3/2_3/4d/c2 B2A4B2  | c8-c2z2  | d2c2 d2e4^3/4f2  | \
w:  sen  *  *  *  ba na   |  gel    |  Has *  re tin  | 
g4 ^3/4f2g6  | g4 a2{b}a2 g2f2  | 
w:  den   |  bak  ne *  ye   | 
e4 d2e4z2  | d4 e2f2 e2d2  | d3/2e/d2 c2d4z2  | \
w:  dön *  düm    |  Od la ra   |  yan *  *  *  dım   | 
c4 _3/4d2{e}d2 c2B2  | A4 B2c4z2  | 
w:  sa ra *  rıp   |  sol *  dum    | 
B4 B2B4A2  | d4 ^c2dc _7/8BAG2  | c6c2 {d}c2B2  | \
w:  Bil me zem   |  n'ol *  dum   |  gel   | 
e2d2 e2d2 c2B2  | 
w:  naz *  lı  gü lüm   | 
c4 B2B2 A2G2  | A8-A2z2  | |


